assets/sonr-icons/coin.svg

<svg xmlns="http://www.w3.org/2000/svg" width="24" height="24" fill="none"><path fill="currentColor" stroke="#000" d="M5.754 17.389C4.273 16.683 3.5 15.7 3.5 14.501v-.774a9.5 9.5 0 0 0 2.254 1.197zm4.996 1.067a17 17 0 0 1-2.5-.298v-2.516q1.24.247 2.5.317zm5-.29q-1.239.24-2.5.298v-2.497a18 18 0 0 0 2.5-.317zm4.75-4.44v.773c0 1.199-.773 2.182-2.25 2.888v-2.465a9.5 9.5 0 0 0 2.25-1.196ZM12 13.5c-2.425 0-4.595-.493-6.14-1.265-1.576-.787-2.359-1.784-2.359-2.735s.784-1.947 2.359-2.735C7.406 5.993 9.576 5.5 12 5.5s4.595.493 6.14 1.265c1.576.788 2.36 1.784 2.36 2.735s-.784 1.947-2.36 2.735c-1.546.773-3.716 1.265-6.14 1.265Z"/></svg>

<svg xmlns="http://www.w3.org/2000/svg" width="24" height="24" fill="none" viewBox="0 0 24 24"><path fill="#000" stroke="#000" stroke-width="1" d="M5.754 17.389C4.273 16.683 3.5 15.7 3.5 14.501V13.727C4.193 14.225 4.951 14.628 5.754 14.924V17.389ZM10.75 18.456C9.911 18.418 9.075 18.318 8.25 18.158V15.642C9.075 15.806 9.911 15.913 10.75 15.959V18.456ZM15.75 18.166C14.925 18.326 14.09 18.425 13.25 18.464V15.967C14.09 15.92 14.926 15.815 15.75 15.65V18.166ZM20.5 13.726V14.499C20.5 15.698 19.727 16.681 18.25 17.387V14.922C19.052 14.626 19.808 14.224 20.5 13.726ZM12 13.5C9.575 13.5 7.405 13.007 5.86 12.235C4.284 11.448 3.501 10.451 3.501 9.5C3.501 8.549 4.285 7.553 5.86 6.765C7.406 5.993 9.576 5.5 12 5.5C14.424 5.5 16.595 5.993 18.14 6.765C19.716 7.553 20.5 8.549 20.5 9.5C20.5 10.451 19.716 11.447 18.14 12.235C16.594 13.008 14.424 13.5 12 13.5Z"/></svg>
